assets/img/braze_icons/watch-square.svg

<svg fill="none" height="24" viewBox="0 0 24 24" width="24" xmlns="http://www.w3.org/2000/svg"><path clip-rule="evenodd" d="m10.4138.999819-.1518-.000155c-.71229-.001102-1.33696-.002067-1.8877.222866-.4813.19658-.90325.51486-1.22449.92364-.36758.46775-.53826 1.06865-.73287 1.7538l-.04156.14602-.22075.77262-.0166.00837c-.56448.28762-1.02343.74656-1.31105 1.31105-.19279.37838-.26411.7716-.29641 1.16694-.0306.37456-.03059.82934-.03057 1.35646v6.67717c-.00002.5271-.00003.9819.03057 1.3564.0323.3954.10362.7886.29641 1.167.28762.5645.74657 1.0234 1.31105 1.311l.01674.0085.22061.7721.04156.146c.19461.6852.36529 1.2861.73287 1.7538.32124.4088.74319.7271 1.22449.9237.55074.2249 1.17541.2239 1.8877.2228l.1518-.0001h3.1725l.1518.0001c.7122.0011 1.3369.0021 1.8876-.2228.4813-.1966.9033-.5149 1.2245-.9237.3676-.4677.5383-1.0686.7329-1.7538l.0416-.146.2206-.7721.0167-.0085c.5645-.2876 1.0234-.7465 1.311-1.311.1928-.3784.2641-.7716.2964-1.167.0306-.3745.0306-.8293.0306-1.3565v-6.67705c0-.52715 0-.98191-.0306-1.35648-.0323-.39534-.1036-.78856-.2964-1.16694-.2876-.56449-.7465-1.02343-1.311-1.31105l-.0166-.00836-.2207-.77263-.0416-.14602c-.1946-.68515-.3653-1.28605-.7329-1.7538-.3212-.40878-.7432-.72706-1.2245-.92364-.5507-.224933-1.1754-.223968-1.8876-.222866l-.1518.000155zm-1.75247 3.500181c-.11538 0-.22729-.00001-.33565.00031.24003-.83552.30814-1.00572.39667-1.11837.10708-.13626.24773-.24236.40816-.30788.13753-.05617.32851-.07424 1.28329-.07424h3.1725c.9547 0 1.1457.01807 1.2832.07424.1605.06552.3011.17162.4082.30788.0885.11265.1566.28284.3967 1.11837-.1084-.00032-.2203-.00031-.3357-.00031zm.06102 16.1177c-.08851-.1127-.15662-.2828-.39656-1.118.1083.0003.22027.0003.33557.0003h6.67724c.1154 0 .2273 0 .3356-.0003-.2399.8352-.308 1.0053-.3965 1.118-.1071.1362-.2477.2423-.4082.3078-.1375.0562-.3285.0743-1.2832.0743h-3.1725c-.95478 0-1.14576-.0181-1.28329-.0743-.16043-.0655-.30108-.1716-.40816-.3078zm4.27765-11.6177c0-.55228-.4477-1-1-1s-1 .44772-1 1v3c0 .2652.1054.5196.2929.7071l1.5 1.5c.3905.3905 1.0237.3905 1.4142 0s.3905-1.0237 0-1.4142l-1.2071-1.2071z" fill="#801ed7" fill-rule="evenodd"/></svg>

<svg width="24" height="24" viewBox="0 0 24 24" fill="none" xmlns="http://www.w3.org/2000/svg">
<path fill-rule="evenodd" clip-rule="evenodd" d="M10.4138 0.999819L10.262 0.999664C9.54971 0.998562 8.92504 0.997597 8.3743 1.22253C7.893 1.41911 7.47105 1.73739 7.14981 2.14617C6.78223 2.61392 6.61155 3.21482 6.41694 3.89997L6.37538 4.04599L6.15463 4.81861L6.13803 4.82698C5.57355 5.1146 5.1146 5.57354 4.82698 6.13803C4.63419 6.51641 4.56287 6.90963 4.53057 7.30497C4.49997 7.67953 4.49998 8.13431 4.5 8.66143V15.3386C4.49998 15.8657 4.49997 16.3205 4.53057 16.695C4.56287 17.0904 4.63419 17.4836 4.82698 17.862C5.1146 18.4265 5.57355 18.8854 6.13803 19.173L6.15477 19.1815L6.37538 19.9536L6.41694 20.0996C6.61155 20.7848 6.78223 21.3857 7.14981 21.8534C7.47105 22.2622 7.893 22.5805 8.3743 22.7771C8.92504 23.002 9.54971 23.001 10.262 22.9999L10.4138 22.9998H13.5863L13.7381 22.9999C14.4503 23.001 15.075 23.002 15.6257 22.7771C16.107 22.5805 16.529 22.2622 16.8502 21.8534C17.2178 21.3857 17.3885 20.7848 17.5831 20.0996L17.6247 19.9536L17.8453 19.1815L17.862 19.173C18.4265 18.8854 18.8854 18.4265 19.173 17.862C19.3658 17.4836 19.4371 17.0904 19.4694 16.695C19.5 16.3205 19.5 15.8657 19.5 15.3385V8.66145C19.5 8.1343 19.5 7.67954 19.4694 7.30497C19.4371 6.90963 19.3658 6.51641 19.173 6.13803C18.8854 5.57354 18.4265 5.1146 17.862 4.82698L17.8454 4.81862L17.6247 4.04599L17.5831 3.89997C17.3885 3.21482 17.2178 2.61392 16.8502 2.14617C16.529 1.73739 16.107 1.41911 15.6257 1.22253C15.075 0.997597 14.4503 0.998562 13.7381 0.999664L13.5863 0.999819H10.4138ZM8.66133 4.5C8.54595 4.5 8.43404 4.49999 8.32568 4.50031C8.56571 3.66479 8.63382 3.49459 8.72235 3.38194C8.82943 3.24568 8.97008 3.13958 9.13051 3.07406C9.26804 3.01789 9.45902 2.99982 10.4138 2.99982H13.5863C14.541 2.99982 14.732 3.01789 14.8695 3.07406C15.03 3.13958 15.1706 3.24568 15.2777 3.38194C15.3662 3.49459 15.4343 3.66478 15.6744 4.50031C15.566 4.49999 15.4541 4.5 15.3387 4.5H8.66133ZM8.72235 20.6177C8.63384 20.505 8.56573 20.3349 8.32579 19.4997C8.43409 19.5 8.54606 19.5 8.66136 19.5H15.3386C15.454 19.5 15.5659 19.5 15.6742 19.4997C15.4343 20.3349 15.3662 20.505 15.2777 20.6177C15.1706 20.7539 15.03 20.86 14.8695 20.9255C14.732 20.9817 14.541 20.9998 13.5863 20.9998H10.4138C9.45902 20.9998 9.26804 20.9817 9.13051 20.9255C8.97008 20.86 8.82943 20.7539 8.72235 20.6177ZM13 9C13 8.44772 12.5523 8 12 8C11.4477 8 11 8.44772 11 9V12C11 12.2652 11.1054 12.5196 11.2929 12.7071L12.7929 14.2071C13.1834 14.5976 13.8166 14.5976 14.2071 14.2071C14.5976 13.8166 14.5976 13.1834 14.2071 12.7929L13 11.5858V9Z" fill="#801ED7"/>
</svg>
